X: 40
T:Jenny Jones. HS.40
T:Sweet Jennie Jones,aka. HS.40
M:3/8
Q:30
S:Henry Stables MS,Cumbria,late19thC
R:waltz
O:Walthwaite,nr.Ambleside.
A:England
Z:vmp.Chris Partington
K:G
d|gdB|GBd|cea|fdd|gdB|cde|dba|g2:|!
g|bgb|agf|eag|fed|bgb|agf|gfe|d2d|!
gdB|GBd|cea|fdd|gdB|cde|dba|g2||
